icons-rebrand/svg/people-light.svg

<svg xmlns="http://www.w3.org/2000/svg" width="32" height="32" viewBox="0 0 32 32"><path d="M22.62 16.8392C23.3354 16.4513 23.9557 15.9094 24.4361 15.2526C24.9166 14.5958 25.2453 13.8405 25.3984 13.0413C25.5515 12.242 25.5252 11.4188 25.3215 10.6309C25.1178 9.84307 24.7417 9.11026 24.2204 8.48542C23.699 7.86057 23.0455 7.35927 22.3068 7.0177C21.5682 6.67612 20.763 6.5028 19.9493 6.51025C19.1355 6.51769 18.3336 6.70571 17.6013 7.06074C16.8691 7.41577 16.2248 7.92894 15.715 8.56322C15.906 8.06522 16.006 7.53722 16.01 7.00322C16.0124 6.2198 15.8103 5.44931 15.4236 4.76798C15.0369 4.08664 14.479 3.51807 13.8051 3.11851C13.1312 2.71895 12.3647 2.50224 11.5814 2.48982C10.798 2.4774 10.025 2.6697 9.33882 3.0477C8.65261 3.4257 8.07698 3.97629 7.66886 4.64502C7.26073 5.31375 7.03427 6.07744 7.01186 6.86055C6.98946 7.64366 7.17188 8.41906 7.5411 9.11003C7.91032 9.801 8.45353 10.3836 9.117 10.8002C5.308 11.7352 2.5 14.8432 2.5 18.5332C2.5 19.5082 3.016 20.8732 5.472 21.8502C7.19 22.4682 9 22.7922 10.826 22.8102C10.6132 23.5116 10.5034 24.2402 10.5 24.9732C10.5 25.9962 11.043 27.4302 13.627 28.4582C15.6693 29.1902 17.828 29.5433 19.997 29.5002C24.727 29.5002 29.497 28.1002 29.497 24.9742C29.497 21.1142 26.584 17.8572 22.619 16.8392H22.62ZM20 7.50522C21.1817 7.52203 22.3094 8.00308 23.1395 8.84443C23.9695 9.68578 24.4352 10.8199 24.436 12.0018C24.4368 13.1836 23.9726 14.3184 23.1437 15.1608C22.3148 16.0033 21.1877 16.4858 20.006 16.5042H19.992C18.7985 16.5033 17.6543 16.0283 16.811 15.1837C15.9678 14.3392 15.4946 13.1942 15.4955 12.0007C15.4964 10.8072 15.9714 9.66302 16.816 8.81977C17.6606 7.97651 18.8055 7.50329 19.999 7.50422L20 7.50522ZM8.01 7.00422C8.01 6.07596 8.37875 5.18573 9.03513 4.52935C9.6915 3.87297 10.5817 3.50422 11.51 3.50422C12.4383 3.50422 13.3285 3.87297 13.9849 4.52935C14.6413 5.18573 15.01 6.07596 15.01 7.00422C15.01 7.93248 14.6413 8.82272 13.9849 9.4791C13.3285 10.1355 12.4383 10.5042 11.51 10.5042C10.5817 10.5042 9.6915 10.1355 9.03513 9.4791C8.37875 8.82272 8.01 7.93248 8.01 7.00422ZM3.5 18.5332C3.5 14.6582 7.09 11.5052 11.502 11.5052C12.523 11.5042 13.538 11.6792 14.5 12.0212C14.5035 13.0086 14.7726 13.9768 15.2789 14.8245C15.7853 15.6722 16.5103 16.368 17.378 16.8392C16.0389 17.1567 14.7878 17.7698 13.7164 18.6336C12.645 19.4974 11.7804 20.5899 11.186 21.8312C7.4 21.7702 3.5 20.6202 3.5 18.5332ZM19.998 28.5002C15.775 28.5002 11.499 27.2892 11.499 24.9742C11.499 20.8542 15.312 17.5042 19.999 17.5042C24.685 17.5042 28.497 20.8542 28.497 24.9742C28.497 27.2892 24.221 28.5002 19.997 28.5002H19.998Z"/></svg>

<svg width="32" height="32" viewBox="0 0 32 32" xmlns="http://www.w3.org/2000/svg"><path d="M22.62 16.839a5.497 5.497 0 1 0-6.905-8.276c.191-.498.291-1.026.295-1.56A4.5 4.5 0 1 0 9.117 10.8c-3.809.935-6.617 4.043-6.617 7.733 0 .975.516 2.34 2.972 3.317 1.718.618 3.528.942 5.354.96a7.571 7.571 0 0 0-.326 2.163c0 1.023.543 2.457 3.127 3.485a17.83 17.83 0 0 0 6.37 1.042c4.73 0 9.5-1.4 9.5-4.526 0-3.86-2.913-7.117-6.878-8.135ZM20 7.505a4.5 4.5 0 0 1 .006 8.999h-.014a4.5 4.5 0 0 1 .007-9ZM8.01 7.004a3.5 3.5 0 1 1 7 0 3.5 3.5 0 0 1-7 0ZM3.5 18.533c0-3.875 3.59-7.028 8.002-7.028 1.021-.001 2.036.174 2.998.516a5.505 5.505 0 0 0 2.878 4.818 9.225 9.225 0 0 0-6.192 4.992C7.4 21.77 3.5 20.62 3.5 18.533ZM19.998 28.5c-4.223 0-8.499-1.211-8.499-3.526 0-4.12 3.813-7.47 8.5-7.47 4.686 0 8.498 3.35 8.498 7.47 0 2.315-4.276 3.526-8.5 3.526Z"/></svg>
